PortableApps/LibreOfficePortable/App/libreoffice/help/media/icon-themes/cmd/sc_autoformat.svg

<svg viewBox="0 0 16 16" xmlns="http://www.w3.org/2000/svg"><path d="m1 5v9h1.5351562c.0219403-.04135.0418478-.070025.0644532-.119141.218197-.474089.2843451-1.318319 1.1855468-1.951171.3911424-.274668.8377146-.363988 1.2714844-.367188.9174437-1.294491 1.9090276-2.6338191 2.9746094-3.8242188.0328415-.0400133.0969571-.1293537.1972656-.2480468l.0136719-.015625.0136719-.015625c.1545367-.1682753.2647972-.26075.3183594-.3164063.1677435-.1895346.3334977-.3648744.4941406-.5371093.5078485-.5444762 1.0478916-1.0819241 1.5996096-1.6054688zm13.978516 0c-1.3562 1.9021436-2.503549 3.2978575-3.378907 4.2753906-.311389.3477466-.595069.6646882-.853515.9316404-.7911216.845443-2.0205304 2.006366-3.4609378 3.265625.0357233.173056.0565418.349276.0664063.527344h7.6484375v-9z" fill="#fff"/><path d="m15.816406 2c-1.771367 1.2875226-4.139032 3.2730777-6.0175779 5.2871094-.1705148.1828193-.3350016.3598781-.4960937.5429687-.1018394.1069355-.2087425.1938325-.3105469.3046875-.0642594.0760368-.1252321.1624152-.1875.2382813-1.1680984 1.3002435-2.3055748 2.8043831-3.296875 4.2324221-.3297348-.148717-.7244429-.155164-1.1484375.142578-.8274678.581075-.6551429 2.668659-2.359375 2.667969.1613565.702456 1.9053971.694085 3.0839844.380859 1.1124377-.295648 1.4538754-1.334737 1.2421875-2.201172-.0338342-.138483-.1015475-.281049-.1855469-.417969 1.7363232-1.475093 2.9984639-2.713534 3.876953-3.6523434.236622-.2437236.51926-.5623632.835938-.9160156 1.184692-1.3229753 2.87816-3.4079929 4.96289-6.609375zm-15.816406 3v9.5c-.00038442.276301.22369855.500384.5.5h.37890625l-.13476563-.585938 1.25585938.001954c.2219342.00009.2467903-.031547.3164062-.091797.05491-.04752.1333475-.165434.2167969-.322266h-1.53515622v-9.001953zm5 0v4h-4v1h4v1.570312c.0189025-.000472.0377809-.007673.0566406-.007812.3021787-.426367.6251072-.855916.9433594-1.285156v-.277344h.203125c.2533669-.3370976.5061971-.6706946.7695312-1h-.9726562v-4zm5 0v.6660156c.223937-.2226822.438288-.4480635.667969-.6660156zm5.001953 0v9.001953h-7.6503905c.0182236.332538-.0196438.669308-.1230469.998047h8.2714844c.276301.000384.500384-.223699.5-.5v-9.5zm-3.166015 4c-.075056.085305-.16477.1954793-.236329.2753906-.311389.3477466-.595069.6646886-.853515.9316404-.198562.212196-.495906.493682-.746094.742188v3.050781h1v-4h4v-1z" fill="#808080"/><path d="m0 1v4h10.667969c1.556649-1.4771591 3.213698-2.8296337 4.560547-3.8085938l.771484.7324219v-.9238281zm16 2.5097656c-.349454.5182256-.696379 1.0342567-1.021484 1.4902344h1.021484zm-11.03125 9.0000004c-.1928904.016833-.3973777.08941-.609375.238281-.8274678.581075-.6551429 2.668659-2.359375 2.667969.1613565.702456 1.9053971.694085 3.0839844.380859 1.1124377-.295648 1.4538754-1.334737 1.2421875-2.201172-.0338343-.138483-.1015475-.281049-.1855469-.417969l-.6328125-.572265c-.1648674-.074359-.3461721-.112536-.5390625-.095703z" fill="#4d82b8"/></svg>

<svg viewBox="0 0 16 16" xmlns="http://www.w3.org/2000/svg">
 <path
   style="fill:#ffffff"
   d="M 1 5 L 1 14 L 2.5351562 14 C 2.5570965 13.95865 2.577004 13.929975 2.5996094 13.880859 C 2.8178064 13.40677 2.8839545 12.56254 3.7851562 11.929688 C 4.1762986 11.65502 4.6228708 11.5657 5.0566406 11.5625 C 5.9740843 10.268009 6.9656682 8.9286809 8.03125 7.7382812 C 8.0640915 7.6982679 8.1282071 7.6089275 8.2285156 7.4902344 L 8.2421875 7.4746094 L 8.2558594 7.4589844 C 8.4103961 7.2907091 8.5206566 7.1982344 8.5742188 7.1425781 C 8.7419623 6.9530435 8.9077165 6.7777037 9.0683594 6.6054688 C 9.5762079 6.0609926 10.116251 5.5235447 10.667969 5 L 1 5 z M 14.978516 5 C 13.622316 6.9021436 12.474967 8.2978575 11.599609 9.2753906 C 11.28822 9.6231372 11.00454 9.9400788 10.746094 10.207031 C 9.9549724 11.052474 8.7255636 12.213397 7.2851562 13.472656 C 7.3208795 13.645712 7.341698 13.821932 7.3515625 14 L 15 14 L 15 5 L 14.978516 5 z "
   id="path2" />
<path
   style="fill:#808080"
   d="M 15.816406 2 C 14.045039 3.2875226 11.677374 5.2730777 9.7988281 7.2871094 C 9.6283133 7.4699287 9.4638265 7.6469875 9.3027344 7.8300781 C 9.200895 7.9370136 9.0939919 8.0239106 8.9921875 8.1347656 C 8.9279281 8.2108024 8.8669554 8.2971808 8.8046875 8.3730469 C 7.6365891 9.6732904 6.4991127 11.17743 5.5078125 12.605469 C 5.1780777 12.456752 4.7833696 12.450305 4.359375 12.748047 C 3.5319072 13.329122 3.7042321 15.416706 2 15.416016 C 2.1613565 16.118472 3.9053971 16.110101 5.0839844 15.796875 C 6.1964221 15.501227 6.5378598 14.462138 6.3261719 13.595703 C 6.2923377 13.45722 6.2246244 13.314654 6.140625 13.177734 C 7.8769482 11.702641 9.1390889 10.4642 10.017578 9.5253906 C 10.2542 9.281667 10.536838 8.9630274 10.853516 8.609375 C 12.038208 7.2863997 13.731676 5.2013821 15.816406 2 z M 0 5 L 0 14.5 C -0.00038442 14.776301 0.22369855 15.000384 0.5 15 L 0.87890625 15 L 0.74414062 14.414062 L 2 14.416016 C 2.2219342 14.416106 2.2467903 14.384469 2.3164062 14.324219 C 2.3713162 14.276699 2.4497537 14.158785 2.5332031 14.001953 L 0.99804688 14.001953 L 0.99804688 5 L 0 5 z M 5 5 L 5 9 L 1 9 L 1 10 L 5 10 L 5 11.570312 C 5.0189025 11.56984 5.0377809 11.562639 5.0566406 11.5625 C 5.3588193 11.136133 5.6817478 10.706584 6 10.277344 L 6 10 L 6.203125 10 C 6.4564919 9.6629024 6.7093221 9.3293054 6.9726562 9 L 6 9 L 6 5 L 5 5 z M 10 5 L 10 5.6660156 C 10.223937 5.4433334 10.438288 5.2179521 10.667969 5 L 10 5 z M 15.001953 5 L 15.001953 14.001953 L 7.3515625 14.001953 C 7.3697861 14.334491 7.3319187 14.671261 7.2285156 15 L 15.5 15 C 15.776301 15.000384 16.000384 14.776301 16 14.5 L 16 5 L 15.001953 5 z M 11.835938 9 C 11.760882 9.085305 11.671168 9.1954793 11.599609 9.2753906 C 11.28822 9.6231372 11.00454 9.9400792 10.746094 10.207031 C 10.547532 10.419227 10.250188 10.700713 10 10.949219 L 10 14 L 11 14 L 11 10 L 15 10 L 15 9 L 11.835938 9 z "
   id="path4" />
<path
   style="fill:#4d82b8"
   d="M 0 1 L 0 5 L 10.667969 5 C 12.224618 3.5228409 13.881667 2.1703663 15.228516 1.1914062 L 16 1.9238281 L 16 1 L 0 1 z M 16 3.5097656 C 15.650546 4.0279912 15.303621 4.5440223 14.978516 5 L 16 5 L 16 3.5097656 z M 4.96875 12.509766 C 4.7758596 12.526599 4.5713723 12.599176 4.359375 12.748047 C 3.5319072 13.329122 3.7042321 15.416706 2 15.416016 C 2.1613565 16.118472 3.9053971 16.110101 5.0839844 15.796875 C 6.1964221 15.501227 6.5378598 14.462138 6.3261719 13.595703 C 6.2923376 13.45722 6.2246244 13.314654 6.140625 13.177734 L 5.5078125 12.605469 C 5.3429451 12.53111 5.1616404 12.492933 4.96875 12.509766 z "
   id="path6" />
</svg>
